coreui/free/cil-battery-0.svg

<svg xmlns="http://www.w3.org/2000/svg" viewBox="0 0 512 512">
  <path fill="var(--ci-primary-color, currentColor)" d="M39.986,424H408a23.825,23.825,0,0,0,24-23.59V344h64V176H432V119.59A23.825,23.825,0,0,0,408,96H39.986a23.825,23.825,0,0,0-24,23.59V400.41A23.825,23.825,0,0,0,39.986,424Zm8-296H400v80h64V312H400v80H47.986Z" class="ci-primary"/>
</svg>

<svg viewBox="0 0 512 512" xmlns="http://www.w3.org/2000/svg"><path d="M39.98 424h368.014 0c13.13.09 23.87-10.46 24-23.59V344h64V176h-64v-56.41 0c-.13-13.14-10.87-23.69-24-23.59H39.97v0c-13.14-.1-23.88 10.45-24 23.59v280.82 0c.12 13.13 10.86 23.68 24 23.59Zm8-296h352.014v80h64v104h-64v80H47.98Z"/></svg>
